X: 623
T: Gonggunr kuqi
L: 1/8
M: 2/4
K: A
B B B B [I:setbarnb 1]| 
d> G A F | 
A4 | 
B B/ A/ F f/ A/ | 
B A/ F< E D/ | 
E4 | 
E> F E E/ F/ | 
A A B F | 
C C E C | 
B,> CB,2 | 
A A/ A/ A c | 
B3c | 
A> F E F | 
E4 |]

@@@ Tune index: 9497
